X:77
T:Kerfunten
Z: id:dc-jig-63
M:6/8
L:1/8
K:G Major
B3 BAG|Bdd efg|d^cd gdB|ABA ABc|!
B3 BAG|Bdd efg|d^cd gdB|AGF G3:|!
g3 gab|e3 edB|g3 gab|bag a3|!
g3 gab|e3 edB|d^cd gdB|AGF G3:|!

